images/icon/calendar.svg

<?xml version="1.0" encoding="UTF-8"?>
<svg xmlns="http://www.w3.org/2000/svg" xmlns:xlink="http://www.w3.org/1999/xlink" width="12pt" height="13pt" viewBox="0 0 12 13" version="1.1">
<g id="surface1">
<path fill="#222933" style=" stroke:none;fill-rule:nonzero;fill:rgb(0%,0%,0%);fill-opacity:1;" d="M 0 11.78125 C 0 12.453125 0.574219 13 1.285156 13 L 10.714844 13 C 11.425781 13 12 12.453125 12 11.78125 L 12 4.875 L 0 4.875 Z M 8.570312 6.804688 C 8.570312 6.636719 8.714844 6.5 8.894531 6.5 L 9.964844 6.5 C 10.140625 6.5 10.285156 6.636719 10.285156 6.804688 L 10.285156 7.820312 C 10.285156 7.988281 10.140625 8.125 9.964844 8.125 L 8.894531 8.125 C 8.714844 8.125 8.570312 7.988281 8.570312 7.820312 Z M 8.570312 10.054688 C 8.570312 9.886719 8.714844 9.75 8.894531 9.75 L 9.964844 9.75 C 10.140625 9.75 10.285156 9.886719 10.285156 10.054688 L 10.285156 11.070312 C 10.285156 11.238281 10.140625 11.375 9.964844 11.375 L 8.894531 11.375 C 8.714844 11.375 8.570312 11.238281 8.570312 11.070312 Z M 5.144531 6.804688 C 5.144531 6.636719 5.289062 6.5 5.464844 6.5 L 6.535156 6.5 C 6.710938 6.5 6.855469 6.636719 6.855469 6.804688 L 6.855469 7.820312 C 6.855469 7.988281 6.710938 8.125 6.535156 8.125 L 5.464844 8.125 C 5.289062 8.125 5.144531 7.988281 5.144531 7.820312 Z M 5.144531 10.054688 C 5.144531 9.886719 5.289062 9.75 5.464844 9.75 L 6.535156 9.75 C 6.710938 9.75 6.855469 9.886719 6.855469 10.054688 L 6.855469 11.070312 C 6.855469 11.238281 6.710938 11.375 6.535156 11.375 L 5.464844 11.375 C 5.289062 11.375 5.144531 11.238281 5.144531 11.070312 Z M 1.714844 6.804688 C 1.714844 6.636719 1.859375 6.5 2.035156 6.5 L 3.105469 6.5 C 3.285156 6.5 3.429688 6.636719 3.429688 6.804688 L 3.429688 7.820312 C 3.429688 7.988281 3.285156 8.125 3.105469 8.125 L 2.035156 8.125 C 1.859375 8.125 1.714844 7.988281 1.714844 7.820312 Z M 1.714844 10.054688 C 1.714844 9.886719 1.859375 9.75 2.035156 9.75 L 3.105469 9.75 C 3.285156 9.75 3.429688 9.886719 3.429688 10.054688 L 3.429688 11.070312 C 3.429688 11.238281 3.285156 11.375 3.105469 11.375 L 2.035156 11.375 C 1.859375 11.375 1.714844 11.238281 1.714844 11.070312 Z M 10.714844 1.625 L 9.429688 1.625 L 9.429688 0.40625 C 9.429688 0.183594 9.234375 0 9 0 L 8.144531 0 C 7.90625 0 7.714844 0.183594 7.714844 0.40625 L 7.714844 1.625 L 4.285156 1.625 L 4.285156 0.40625 C 4.285156 0.183594 4.09375 0 3.855469 0 L 3 0 C 2.765625 0 2.570312 0.183594 2.570312 0.40625 L 2.570312 1.625 L 1.285156 1.625 C 0.574219 1.625 0 2.171875 0 2.84375 L 0 4.0625 L 12 4.0625 L 12 2.84375 C 12 2.171875 11.425781 1.625 10.714844 1.625 Z M 10.714844 1.625 "/>
</g>
</svg>

<svg xmlns="http://www.w3.org/2000/svg" width="16" height="13pt" viewBox="0 0 12 13"><path d="M0 11.781C0 12.453.574 13 1.285 13h9.43c.71 0 1.285-.547 1.285-1.219V4.875H0zm8.57-4.976c0-.168.145-.305.325-.305h1.07c.176 0 .32.137.32.305V7.82a.314.314 0 01-.32.305h-1.07c-.18 0-.325-.137-.325-.305zm0 3.25c0-.168.145-.305.325-.305h1.07c.176 0 .32.137.32.305v1.015a.314.314 0 01-.32.305h-1.07c-.18 0-.325-.137-.325-.305zm-3.425-3.25c0-.168.144-.305.32-.305h1.07c.176 0 .32.137.32.305V7.82a.314.314 0 01-.32.305h-1.07a.314.314 0 01-.32-.305zm0 3.25c0-.168.144-.305.32-.305h1.07c.176 0 .32.137.32.305v1.015a.314.314 0 01-.32.305h-1.07a.314.314 0 01-.32-.305zm-3.43-3.25c0-.168.144-.305.32-.305h1.07c.18 0 .325.137.325.305V7.82c0 .168-.145.305-.325.305h-1.07a.314.314 0 01-.32-.305zm0 3.25c0-.168.144-.305.32-.305h1.07c.18 0 .325.137.325.305v1.015c0 .168-.145.305-.325.305h-1.07a.314.314 0 01-.32-.305zm9-8.43H9.43V.406C9.43.184 9.234 0 9 0h-.855a.419.419 0 00-.43.406v1.219h-3.43V.406A.419.419 0 003.855 0H3c-.234 0-.43.184-.43.406v1.219H1.285C.575 1.625 0 2.172 0 2.844v1.219h12v-1.22c0-.671-.574-1.218-1.285-1.218zm0 0" id="surface1"/></svg>
